.config/awesome/icons-18px/widget/task.svg

<?xml version="1.0" encoding="UTF-8" standalone="no"?>
<svg
   xmlns:dc="http://purl.org/dc/elements/1.1/"
   xmlns:cc="http://creativecommons.org/ns#"
   xmlns:rdf="http://www.w3.org/1999/02/22-rdf-syntax-ns#"
   xmlns:svg="http://www.w3.org/2000/svg"
   xmlns="http://www.w3.org/2000/svg"
   width="18"
   height="18"
   viewBox="0 0 18 18"
   id="svg2"
   version="1.1">
  <defs
     id="defs4" />
  <metadata
     id="metadata7">
    <rdf:RDF>
      <cc:Work
         rdf:about="">
        <dc:format>image/svg+xml</dc:format>
        <dc:type
           rdf:resource="http://purl.org/dc/dcmitype/StillImage" />
        <dc:title></dc:title>
      </cc:Work>
    </rdf:RDF>
  </metadata>
  <path
     id="rect28384"
     d="m 4,5 0,1 7,0 0,-1 -7,0 z m 0,1 -1,0 0,6 1,0 0,-6 z m 0,6 0,1 7,0 0,-1 -7,0 z m 7,0 1,0 0,-2 -1,0 0,2 z m 1,-6 0,1 1,0 0,-1 -1,0 z m 0,1 -1,0 0,1 1,0 0,-1 z m -1,1 -1,0 0,1 1,0 0,-1 z m -1,1 -1,0 0,1 1,0 0,-1 z m -1,1 -1,0 0,1 1,0 0,-1 z M 8,10 8,9 7,9 7,10 8,10 Z M 7,9 7,8 6,8 6,9 7,9 Z"
     style="color:#000000;clip-rule:nonzero;display:inline;overflow:visible;visibility:visible;opacity:1;isolation:auto;mix-blend-mode:normal;color-interpolation:sRGB;color-interpolation-filters:linearRGB;solid-color:#000000;solid-opacity:1;fill:#eee8d5;fill-opacity:1;fill-rule:evenodd;stroke:none;stroke-width:0.35433072;stroke-linecap:butt;stroke-linejoin:round;stroke-miterlimit:4;stroke-dasharray:none;stroke-dashoffset:0;stroke-opacity:1;marker:none;color-rendering:auto;image-rendering:auto;shape-rendering:auto;text-rendering:auto;enable-background:accumulate" />
</svg>

<?xml version="1.0" encoding="UTF-8" standalone="no"?>
<svg
   xmlns:dc="http://purl.org/dc/elements/1.1/"
   xmlns:cc="http://creativecommons.org/ns#"
   xmlns:rdf="http://www.w3.org/1999/02/22-rdf-syntax-ns#"
   xmlns:svg="http://www.w3.org/2000/svg"
   xmlns="http://www.w3.org/2000/svg"
   version="1.1"
   id="svg2"
   viewBox="0 0 18 18"
   height="18"
   width="18">
  <defs
     id="defs4" />
  <metadata
     id="metadata7">
    <rdf:RDF>
      <cc:Work
         rdf:about="">
        <dc:format>image/svg+xml</dc:format>
        <dc:type
           rdf:resource="http://purl.org/dc/dcmitype/StillImage" />
        <dc:title />
      </cc:Work>
    </rdf:RDF>
  </metadata>
  <g
     transform="translate(0,-1034.3622)"
     id="layer1">
    <path
       id="rect28384"
       transform="translate(0,1034.3622)"
       d="M 4 5 L 4 6 L 11 6 L 11 5 L 4 5 z M 4 6 L 3 6 L 3 12 L 4 12 L 4 6 z M 4 12 L 4 13 L 11 13 L 11 12 L 4 12 z M 11 12 L 12 12 L 12 10 L 11 10 L 11 12 z M 12 6 L 12 7 L 13 7 L 13 6 L 12 6 z M 12 7 L 11 7 L 11 8 L 12 8 L 12 7 z M 11 8 L 10 8 L 10 9 L 11 9 L 11 8 z M 10 9 L 9 9 L 9 10 L 10 10 L 10 9 z M 9 10 L 8 10 L 8 11 L 9 11 L 9 10 z M 8 10 L 8 9 L 7 9 L 7 10 L 8 10 z M 7 9 L 7 8 L 6 8 L 6 9 L 7 9 z "
       style="color:#000000;clip-rule:nonzero;display:inline;overflow:visible;visibility:visible;opacity:1;isolation:auto;mix-blend-mode:normal;color-interpolation:sRGB;color-interpolation-filters:linearRGB;solid-color:#000000;solid-opacity:1;fill:#eee8d5;fill-opacity:1;fill-rule:evenodd;stroke:none;stroke-width:0.35433072;stroke-linecap:butt;stroke-linejoin:round;stroke-miterlimit:4;stroke-dasharray:none;stroke-dashoffset:0;stroke-opacity:1;marker:none;color-rendering:auto;image-rendering:auto;shape-rendering:auto;text-rendering:auto;enable-background:accumulate" />
  </g>
</svg>
